images/6605135.svg

<?xml version="1.0" encoding="UTF-8"?>
<svg xmlns="http://www.w3.org/2000/svg" xmlns:xlink="http://www.w3.org/1999/xlink" width="300pt" height="300pt" viewBox="0 0 300 300" version="1.1">
<defs>
<g>
<symbol overflow="visible" id="glyph0-0">
<path style="stroke:none;" d="M 0.453125 1.59375 L 0.453125 -6.34375 L 4.953125 -6.34375 L 4.953125 1.59375 Z M 0.953125 1.09375 L 4.453125 1.09375 L 4.453125 -5.84375 L 0.953125 -5.84375 Z M 0.953125 1.09375 "/>
</symbol>
<symbol overflow="visible" id="glyph0-1">
<path style="stroke:none;" d="M 0.890625 -6.5625 L 2.078125 -6.5625 L 4.984375 -1.078125 L 4.984375 -6.5625 L 5.84375 -6.5625 L 5.84375 0 L 4.65625 0 L 1.75 -5.484375 L 1.75 0 L 0.890625 0 Z M 0.890625 -6.5625 "/>
</symbol>
<symbol overflow="visible" id="glyph0-2">
<path style="stroke:none;" d="M 0.890625 -6.5625 L 1.765625 -6.5625 L 1.765625 -3.875 L 5 -3.875 L 5 -6.5625 L 5.890625 -6.5625 L 5.890625 0 L 5 0 L 5 -3.125 L 1.765625 -3.125 L 1.765625 0 L 0.890625 0 Z M 0.890625 -6.5625 "/>
</symbol>
</g>
</defs>
<g id="surface38245">
<rect x="0" y="0" width="300" height="300" style="fill:rgb(100%,100%,100%);fill-opacity:1;stroke:none;"/>
<path style="fill:none;stroke-width:1.2;stroke-linecap:butt;stroke-linejoin:miter;stroke:rgb(0%,0%,0%);stroke-opacity:1;stroke-miterlimit:10;" d="M 264.75 144.25 L 247.894531 138.214844 "/>
<path style="fill:none;stroke-width:1.2;stroke-linecap:butt;stroke-linejoin:miter;stroke:rgb(0%,0%,0%);stroke-opacity:1;stroke-miterlimit:10;" d="M 247.894531 138.214844 L 241.070312 144.007812 "/>
<path style="fill:none;stroke-width:1.2;stroke-linecap:butt;stroke-linejoin:miter;stroke:rgb(0%,0%,100%);stroke-opacity:1;stroke-miterlimit:10;" d="M 241.070312 144.007812 L 234.246094 149.796875 "/>
<path style="fill:none;stroke-width:1.2;stroke-linecap:butt;stroke-linejoin:miter;stroke:rgb(0%,0%,100%);stroke-opacity:1;stroke-miterlimit:10;" d="M 234.246094 149.796875 L 235.84375 158.601562 "/>
<path style="fill:none;stroke-width:1.2;stroke-linecap:butt;stroke-linejoin:miter;stroke:rgb(0%,0%,0%);stroke-opacity:1;stroke-miterlimit:10;" d="M 235.84375 158.601562 L 237.445312 167.40625 "/>
<path style="fill:none;stroke-width:1.2;stroke-linecap:butt;stroke-linejoin:miter;stroke:rgb(0%,0%,100%);stroke-opacity:1;stroke-miterlimit:10;" d="M 234.246094 149.796875 L 225.816406 146.777344 "/>
<path style="fill:none;stroke-width:1.2;stroke-linecap:butt;stroke-linejoin:miter;stroke:rgb(0%,0%,0%);stroke-opacity:1;stroke-miterlimit:10;" d="M 225.816406 146.777344 L 217.390625 143.761719 "/>
<path style=" stroke:none;fill-rule:nonzero;fill:rgb(100%,100%,100%);fill-opacity:1;" d="M 231.246094 144.296875 L 238.246094 144.296875 L 238.246094 155.296875 L 231.246094 155.296875 Z M 231.246094 144.296875 "/>
<g style="fill:rgb(0%,0%,100%);fill-opacity:1;">
  <use xlink:href="#glyph0-1" x="231.246094" y="152.959961"/>
</g>
<path style="fill:none;stroke-width:1.2;stroke-linecap:butt;stroke-linejoin:miter;stroke:rgb(0%,0%,0%);stroke-opacity:1;stroke-miterlimit:10;" d="M 237.445312 167.40625 L 254.300781 173.441406 "/>
<path style="fill:none;stroke-width:1.2;stroke-linecap:butt;stroke-linejoin:miter;stroke:rgb(0%,0%,0%);stroke-opacity:1;stroke-miterlimit:10;" d="M 217.390625 143.761719 L 203.738281 155.339844 "/>
<path style="fill:none;stroke-width:1.2;stroke-linecap:butt;stroke-linejoin:miter;stroke:rgb(0%,0%,0%);stroke-opacity:1;stroke-miterlimit:10;" d="M 203.738281 155.339844 L 186.886719 149.308594 "/>
<path style="fill:none;stroke-width:1.2;stroke-linecap:butt;stroke-linejoin:miter;stroke:rgb(0%,0%,0%);stroke-opacity:1;stroke-miterlimit:10;" d="M 186.886719 149.308594 L 173.234375 160.886719 "/>
<path style="fill:none;stroke-width:1.2;stroke-linecap:butt;stroke-linejoin:miter;stroke:rgb(0%,0%,0%);stroke-opacity:1;stroke-miterlimit:10;" d="M 173.234375 160.886719 L 164.808594 157.871094 "/>
<path style="fill:none;stroke-width:1.2;stroke-linecap:butt;stroke-linejoin:miter;stroke:rgb(0%,0%,100%);stroke-opacity:1;stroke-miterlimit:10;" d="M 164.808594 157.871094 L 156.378906 154.855469 "/>
<path style="fill:none;stroke-width:1.2;stroke-linecap:butt;stroke-linejoin:miter;stroke:rgb(0%,0%,100%);stroke-opacity:1;stroke-miterlimit:10;" d="M 156.378906 154.855469 L 148.988281 159.898438 "/>
<path style="fill:none;stroke-width:1.2;stroke-linecap:butt;stroke-linejoin:miter;stroke:rgb(0%,0%,0%);stroke-opacity:1;stroke-miterlimit:10;" d="M 148.988281 159.898438 L 141.59375 164.945312 "/>
<path style="fill:none;stroke-width:1.2;stroke-linecap:butt;stroke-linejoin:miter;stroke:rgb(0%,0%,0%);stroke-opacity:1;stroke-miterlimit:10;" d="M 151.355469 137.671875 L 153.867188 146.265625 "/>
<path style="fill:none;stroke-width:1.2;stroke-linecap:butt;stroke-linejoin:miter;stroke:rgb(0%,0%,100%);stroke-opacity:1;stroke-miterlimit:10;" d="M 153.867188 146.265625 L 156.378906 154.855469 "/>
<path style=" stroke:none;fill-rule:nonzero;fill:rgb(100%,100%,100%);fill-opacity:1;" d="M 153.378906 149.355469 L 160.378906 149.355469 L 160.378906 160.355469 L 153.378906 160.355469 Z M 153.378906 149.355469 "/>
<g style="fill:rgb(0%,0%,100%);fill-opacity:1;">
  <use xlink:href="#glyph0-1" x="153.378906" y="158.018555"/>
</g>
<path style="fill:none;stroke-width:1.2;stroke-linecap:butt;stroke-linejoin:miter;stroke:rgb(0%,0%,0%);stroke-opacity:1;stroke-miterlimit:10;" d="M 141.59375 164.945312 L 127.429688 153.996094 "/>
<path style="fill:none;stroke-width:1.2;stroke-linecap:butt;stroke-linejoin:miter;stroke:rgb(0%,0%,0%);stroke-opacity:1;stroke-miterlimit:10;" d="M 137.601562 167.183594 L 126.269531 158.425781 "/>
<path style="fill:none;stroke-width:1.2;stroke-linecap:butt;stroke-linejoin:miter;stroke:rgb(0%,0%,100%);stroke-opacity:1;stroke-miterlimit:10;" d="M 139.195312 182.683594 L 140.394531 173.8125 "/>
<path style="fill:none;stroke-width:1.2;stroke-linecap:butt;stroke-linejoin:miter;stroke:rgb(0%,0%,0%);stroke-opacity:1;stroke-miterlimit:10;" d="M 140.394531 173.8125 L 141.59375 164.945312 "/>
<path style="fill:none;stroke-width:1.2;stroke-linecap:butt;stroke-linejoin:miter;stroke:rgb(0%,0%,0%);stroke-opacity:1;stroke-miterlimit:10;" d="M 127.429688 153.996094 L 110.867188 160.792969 "/>
<path style="fill:none;stroke-width:1.2;stroke-linecap:butt;stroke-linejoin:miter;stroke:rgb(0%,0%,0%);stroke-opacity:1;stroke-miterlimit:10;" d="M 127.429688 153.996094 L 130.445312 145.570312 "/>
<path style="fill:none;stroke-width:1.2;stroke-linecap:butt;stroke-linejoin:miter;stroke:rgb(0%,0%,100%);stroke-opacity:1;stroke-miterlimit:10;" d="M 130.445312 145.570312 L 133.460938 137.144531 "/>
<path style="fill:none;stroke-width:1.2;stroke-linecap:butt;stroke-linejoin:miter;stroke:rgb(0%,0%,0%);stroke-opacity:1;stroke-miterlimit:10;" d="M 110.867188 160.792969 L 109.667969 169.660156 "/>
<path style="fill:none;stroke-width:1.2;stroke-linecap:butt;stroke-linejoin:miter;stroke:rgb(0%,0%,100%);stroke-opacity:1;stroke-miterlimit:10;" d="M 109.667969 169.660156 L 108.46875 178.53125 "/>
<path style="fill:none;stroke-width:1.2;stroke-linecap:butt;stroke-linejoin:miter;stroke:rgb(0%,0%,0%);stroke-opacity:1;stroke-miterlimit:10;" d="M 114.800781 163.128906 L 113.84375 170.226562 "/>
<path style="fill:none;stroke-width:1.2;stroke-linecap:butt;stroke-linejoin:miter;stroke:rgb(0%,0%,100%);stroke-opacity:1;stroke-miterlimit:10;" d="M 113.84375 170.226562 L 112.882812 177.320312 "/>
<path style="fill:none;stroke-width:1.2;stroke-linecap:butt;stroke-linejoin:miter;stroke:rgb(0%,0%,0%);stroke-opacity:1;stroke-miterlimit:10;" d="M 110.867188 160.792969 L 103.785156 155.320312 "/>
<path style="fill:none;stroke-width:1.2;stroke-linecap:butt;stroke-linejoin:miter;stroke:rgb(0%,0%,100%);stroke-opacity:1;stroke-miterlimit:10;" d="M 103.785156 155.320312 L 96.703125 149.84375 "/>
<path style="fill:none;stroke-width:1.2;stroke-linecap:butt;stroke-linejoin:miter;stroke:rgb(0%,0%,100%);stroke-opacity:1;stroke-miterlimit:10;" d="M 108.46875 178.53125 L 115.550781 184.003906 "/>
<path style="fill:none;stroke-width:1.2;stroke-linecap:butt;stroke-linejoin:miter;stroke:rgb(0%,0%,0%);stroke-opacity:1;stroke-miterlimit:10;" d="M 115.550781 184.003906 L 122.632812 189.476562 "/>
<path style=" stroke:none;fill-rule:nonzero;fill:rgb(100%,100%,100%);fill-opacity:1;" d="M 105.46875 173.03125 L 112.46875 173.03125 L 112.46875 184.03125 L 105.46875 184.03125 Z M 105.46875 173.03125 "/>
<g style="fill:rgb(0%,0%,100%);fill-opacity:1;">
  <use xlink:href="#glyph0-1" x="105.46875" y="181.694336"/>
</g>
<path style="fill:none;stroke-width:1.2;stroke-linecap:butt;stroke-linejoin:miter;stroke:rgb(0%,0%,0%);stroke-opacity:1;stroke-miterlimit:10;" d="M 122.632812 189.476562 L 130.914062 186.082031 "/>
<path style="fill:none;stroke-width:1.2;stroke-linecap:butt;stroke-linejoin:miter;stroke:rgb(0%,0%,100%);stroke-opacity:1;stroke-miterlimit:10;" d="M 130.914062 186.082031 L 139.195312 182.683594 "/>
<path style="fill:none;stroke-width:1.2;stroke-linecap:butt;stroke-linejoin:miter;stroke:rgb(0%,0%,0%);stroke-opacity:1;stroke-miterlimit:10;" d="M 122.691406 184.902344 L 129.316406 182.183594 "/>
<path style="fill:none;stroke-width:1.2;stroke-linecap:butt;stroke-linejoin:miter;stroke:rgb(0%,0%,100%);stroke-opacity:1;stroke-miterlimit:10;" d="M 129.316406 182.183594 L 135.941406 179.464844 "/>
<path style="fill:none;stroke-width:1.2;stroke-linecap:butt;stroke-linejoin:miter;stroke:rgb(0%,0%,0%);stroke-opacity:1;stroke-miterlimit:10;" d="M 122.632812 189.476562 L 120.238281 207.21875 "/>
<path style=" stroke:none;fill-rule:nonzero;fill:rgb(100%,100%,100%);fill-opacity:1;" d="M 136.195312 177.183594 L 143.195312 177.183594 L 143.195312 188.183594 L 136.195312 188.183594 Z M 136.195312 177.183594 "/>
<g style="fill:rgb(0%,0%,100%);fill-opacity:1;">
  <use xlink:href="#glyph0-1" x="136.195312" y="185.84668"/>
</g>
<path style="fill:none;stroke-width:1.2;stroke-linecap:butt;stroke-linejoin:miter;stroke:rgb(0%,0%,100%);stroke-opacity:1;stroke-miterlimit:10;" d="M 96.703125 149.84375 L 88.421875 153.242188 "/>
<path style="fill:none;stroke-width:1.2;stroke-linecap:butt;stroke-linejoin:miter;stroke:rgb(0%,0%,0%);stroke-opacity:1;stroke-miterlimit:10;" d="M 88.421875 153.242188 L 80.140625 156.640625 "/>
<path style=" stroke:none;fill-rule:nonzero;fill:rgb(100%,100%,100%);fill-opacity:1;" d="M 89.703125 144.34375 L 103.703125 144.34375 L 103.703125 155.34375 L 89.703125 155.34375 Z M 89.703125 144.34375 "/>
<g style="fill:rgb(0%,0%,100%);fill-opacity:1;">
  <use xlink:href="#glyph0-1" x="89.703125" y="153.006836"/>
  <use xlink:href="#glyph0-2" x="96.680664" y="153.006836"/>
</g>
<path style="fill:none;stroke-width:1.2;stroke-linecap:butt;stroke-linejoin:miter;stroke:rgb(0%,0%,0%);stroke-opacity:1;stroke-miterlimit:10;" d="M 80.140625 156.640625 L 65.976562 145.695312 "/>
<path style="fill:none;stroke-width:1.2;stroke-linecap:butt;stroke-linejoin:miter;stroke:rgb(0%,0%,0%);stroke-opacity:1;stroke-miterlimit:10;" d="M 65.976562 145.695312 L 68.375 127.953125 "/>
<path style="fill:none;stroke-width:1.2;stroke-linecap:butt;stroke-linejoin:miter;stroke:rgb(0%,0%,0%);stroke-opacity:1;stroke-miterlimit:10;" d="M 62.042969 143.355469 L 63.960938 129.164062 "/>
<path style="fill:none;stroke-width:1.2;stroke-linecap:butt;stroke-linejoin:miter;stroke:rgb(0%,0%,0%);stroke-opacity:1;stroke-miterlimit:10;" d="M 49.414062 152.488281 L 65.976562 145.695312 "/>
<path style="fill:none;stroke-width:1.2;stroke-linecap:butt;stroke-linejoin:miter;stroke:rgb(0%,0%,0%);stroke-opacity:1;stroke-miterlimit:10;" d="M 68.375 127.953125 L 54.207031 117.007812 "/>
<path style="fill:none;stroke-width:1.2;stroke-linecap:butt;stroke-linejoin:miter;stroke:rgb(0%,0%,0%);stroke-opacity:1;stroke-miterlimit:10;" d="M 54.207031 117.007812 L 37.648438 123.800781 "/>
<path style="fill:none;stroke-width:1.2;stroke-linecap:butt;stroke-linejoin:miter;stroke:rgb(0%,0%,0%);stroke-opacity:1;stroke-miterlimit:10;" d="M 54.152344 121.585938 L 40.902344 127.019531 "/>
<path style="fill:none;stroke-width:1.2;stroke-linecap:butt;stroke-linejoin:miter;stroke:rgb(0%,0%,0%);stroke-opacity:1;stroke-miterlimit:10;" d="M 37.648438 123.800781 L 35.25 141.542969 "/>
<path style="fill:none;stroke-width:1.2;stroke-linecap:butt;stroke-linejoin:miter;stroke:rgb(0%,0%,0%);stroke-opacity:1;stroke-miterlimit:10;" d="M 35.25 141.542969 L 49.414062 152.488281 "/>
<path style="fill:none;stroke-width:1.2;stroke-linecap:butt;stroke-linejoin:miter;stroke:rgb(0%,0%,0%);stroke-opacity:1;stroke-miterlimit:10;" d="M 39.242188 139.304688 L 50.574219 148.058594 "/>
<path style="fill:none;stroke-width:1.2;stroke-linecap:butt;stroke-linejoin:miter;stroke:rgb(0%,0%,100%);stroke-opacity:1;stroke-miterlimit:10;" d="M 133.460938 137.144531 L 142.40625 137.410156 "/>
<path style="fill:none;stroke-width:1.2;stroke-linecap:butt;stroke-linejoin:miter;stroke:rgb(0%,0%,0%);stroke-opacity:1;stroke-miterlimit:10;" d="M 142.40625 137.410156 L 151.355469 137.671875 "/>
<path style="fill:none;stroke-width:1.2;stroke-linecap:butt;stroke-linejoin:miter;stroke:rgb(0%,0%,100%);stroke-opacity:1;stroke-miterlimit:10;" d="M 135.125 141.40625 L 142.285156 141.617188 "/>
<path style="fill:none;stroke-width:1.2;stroke-linecap:butt;stroke-linejoin:miter;stroke:rgb(0%,0%,0%);stroke-opacity:1;stroke-miterlimit:10;" d="M 142.285156 141.617188 L 149.441406 141.832031 "/>
<path style=" stroke:none;fill-rule:nonzero;fill:rgb(100%,100%,100%);fill-opacity:1;" d="M 130.460938 131.644531 L 137.460938 131.644531 L 137.460938 142.644531 L 130.460938 142.644531 Z M 130.460938 131.644531 "/>
<g style="fill:rgb(0%,0%,100%);fill-opacity:1;">
  <use xlink:href="#glyph0-1" x="130.460938" y="140.307617"/>
</g>
<path style="fill:none;stroke-width:1.2;stroke-linecap:butt;stroke-linejoin:miter;stroke:rgb(0%,0%,0%);stroke-opacity:1;stroke-miterlimit:10;" d="M 151.355469 137.671875 L 162.300781 123.507812 "/>
<path style="fill:none;stroke-width:1.2;stroke-linecap:butt;stroke-linejoin:miter;stroke:rgb(0%,0%,0%);stroke-opacity:1;stroke-miterlimit:10;" d="M 162.300781 123.507812 L 180.039062 125.90625 "/>
<path style="fill:none;stroke-width:1.2;stroke-linecap:butt;stroke-linejoin:miter;stroke:rgb(0%,0%,0%);stroke-opacity:1;stroke-miterlimit:10;" d="M 164.636719 119.574219 L 178.832031 121.492188 "/>
<path style="fill:none;stroke-width:1.2;stroke-linecap:butt;stroke-linejoin:miter;stroke:rgb(0%,0%,0%);stroke-opacity:1;stroke-miterlimit:10;" d="M 155.507812 106.949219 L 162.300781 123.507812 "/>
<path style="fill:none;stroke-width:1.2;stroke-linecap:butt;stroke-linejoin:miter;stroke:rgb(0%,0%,0%);stroke-opacity:1;stroke-miterlimit:10;" d="M 180.039062 125.90625 L 190.984375 111.742188 "/>
<path style="fill:none;stroke-width:1.2;stroke-linecap:butt;stroke-linejoin:miter;stroke:rgb(0%,0%,0%);stroke-opacity:1;stroke-miterlimit:10;" d="M 190.984375 111.742188 L 184.191406 95.179688 "/>
<path style="fill:none;stroke-width:1.2;stroke-linecap:butt;stroke-linejoin:miter;stroke:rgb(0%,0%,0%);stroke-opacity:1;stroke-miterlimit:10;" d="M 186.410156 111.683594 L 180.976562 98.433594 "/>
<path style="fill:none;stroke-width:1.2;stroke-linecap:butt;stroke-linejoin:miter;stroke:rgb(0%,0%,0%);stroke-opacity:1;stroke-miterlimit:10;" d="M 184.191406 95.179688 L 166.453125 92.78125 "/>
<path style="fill:none;stroke-width:1.2;stroke-linecap:butt;stroke-linejoin:miter;stroke:rgb(0%,0%,0%);stroke-opacity:1;stroke-miterlimit:10;" d="M 166.453125 92.78125 L 155.507812 106.949219 "/>
<path style="fill:none;stroke-width:1.2;stroke-linecap:butt;stroke-linejoin:miter;stroke:rgb(0%,0%,0%);stroke-opacity:1;stroke-miterlimit:10;" d="M 168.691406 96.773438 L 159.933594 108.105469 "/>
</g>
</svg>

<svg xmlns="http://www.w3.org/2000/svg" xmlns:xlink="http://www.w3.org/1999/xlink" width="300pt" height="300pt" viewBox="0 0 300 300"><defs><symbol overflow="visible"><path d="M.453 1.594v-7.938h4.5v7.938zm.5-.5h3.5v-6.938h-3.5zm0 0"/></symbol><symbol overflow="visible" id="a"><path d="M.89-6.563H2.08l2.906 5.485v-5.484h.86V0H4.656L1.75-5.484V0H.89zm0 0"/></symbol><symbol overflow="visible" id="b"><path d="M.89-6.563h.876v2.688H5v-2.688h.89V0H5v-3.125H1.766V0H.89zm0 0"/></symbol></defs><g><path fill="#fff" d="M0 0h300v300H0z"/><path d="M264.75 144.25l-16.855-6.035M247.895 138.215l-6.825 5.793" stroke-width="1.2" stroke="#000" stroke-miterlimit="10" fill="none"/><path d="M241.07 144.008l-6.824 5.79M234.246 149.797l1.598 8.805" stroke-width="1.2" stroke="#00f" stroke-miterlimit="10" fill="none"/><path d="M235.844 158.602l1.6 8.804" stroke-width="1.2" stroke="#000" stroke-miterlimit="10" fill="none"/><path d="M234.246 149.797l-8.43-3.02" stroke-width="1.2" stroke="#00f" stroke-miterlimit="10" fill="none"/><path d="M225.816 146.777l-8.425-3.015" stroke-width="1.2" stroke="#000" stroke-miterlimit="10" fill="none"/><path d="M231.246 144.297h7v11h-7zm0 0" fill="#fff"/><use xlink:href="#a" x="231.246" y="152.96" fill="#00f"/><path d="M237.445 167.406l16.856 6.035M217.39 143.762L203.74 155.34M203.738 155.34l-16.85-6.03M186.887 149.31l-13.653 11.577M173.234 160.887l-8.425-3.016" stroke-width="1.2" stroke="#000" stroke-miterlimit="10" fill="none"/><path d="M164.81 157.87l-8.43-3.015M156.38 154.855l-7.392 5.043" stroke-width="1.2" stroke="#00f" stroke-miterlimit="10" fill="none"/><path d="M148.988 159.898l-7.394 5.047M151.355 137.672l2.512 8.594" stroke-width="1.2" stroke="#000" stroke-miterlimit="10" fill="none"/><path d="M153.867 146.266l2.512 8.59" stroke-width="1.2" stroke="#00f" stroke-miterlimit="10" fill="none"/><path d="M153.38 149.355h7v11h-7zm0 0" fill="#fff"/><use xlink:href="#a" x="153.379" y="158.019" fill="#00f"/><path d="M141.594 164.945l-14.164-10.95M137.602 167.184l-11.332-8.758" stroke-width="1.2" stroke="#000" stroke-miterlimit="10" fill="none"/><path d="M139.195 182.684l1.2-8.87" stroke-width="1.2" stroke="#00f" stroke-miterlimit="10" fill="none"/><path d="M140.395 173.813l1.2-8.868M127.43 153.996l-16.563 6.797M127.43 153.996l3.015-8.426" stroke-width="1.2" stroke="#000" stroke-miterlimit="10" fill="none"/><path d="M130.445 145.57l3.016-8.425" stroke-width="1.2" stroke="#00f" stroke-miterlimit="10" fill="none"/><path d="M110.867 160.793l-1.2 8.867" stroke-width="1.2" stroke="#000" stroke-miterlimit="10" fill="none"/><path d="M109.668 169.66l-1.2 8.87" stroke-width="1.2" stroke="#00f" stroke-miterlimit="10" fill="none"/><path d="M114.8 163.13l-.956 7.097" stroke-width="1.2" stroke="#000" stroke-miterlimit="10" fill="none"/><path d="M113.844 170.227l-.96 7.093" stroke-width="1.2" stroke="#00f" stroke-miterlimit="10" fill="none"/><path d="M110.867 160.793l-7.082-5.473" stroke-width="1.2" stroke="#000" stroke-miterlimit="10" fill="none"/><path d="M103.785 155.32l-7.082-5.476M108.47 178.53l7.08 5.474" stroke-width="1.2" stroke="#00f" stroke-miterlimit="10" fill="none"/><path d="M115.55 184.004l7.083 5.473" stroke-width="1.2" stroke="#000" stroke-miterlimit="10" fill="none"/><path d="M105.47 173.03h7v11h-7zm0 0" fill="#fff"/><use xlink:href="#a" x="105.469" y="181.694" fill="#00f"/><path d="M122.633 189.477l8.28-3.395" stroke-width="1.2" stroke="#000" stroke-miterlimit="10" fill="none"/><path d="M130.914 186.082l8.28-3.398" stroke-width="1.2" stroke="#00f" stroke-miterlimit="10" fill="none"/><path d="M122.69 184.902l6.626-2.718" stroke-width="1.2" stroke="#000" stroke-miterlimit="10" fill="none"/><path d="M129.316 182.184l6.625-2.72" stroke-width="1.2" stroke="#00f" stroke-miterlimit="10" fill="none"/><path d="M122.633 189.477l-2.395 17.742" stroke-width="1.2" stroke="#000" stroke-miterlimit="10" fill="none"/><path d="M136.195 177.184h7v11h-7zm0 0" fill="#fff"/><use xlink:href="#a" x="136.195" y="185.847" fill="#00f"/><path d="M96.703 149.844l-8.28 3.398" stroke-width="1.2" stroke="#00f" stroke-miterlimit="10" fill="none"/><path d="M88.422 153.242l-8.28 3.4" stroke-width="1.2" stroke="#000" stroke-miterlimit="10" fill="none"/><path d="M89.703 144.344h14v11h-14zm0 0" fill="#fff"/><g fill="#00f"><use xlink:href="#a" x="89.703" y="153.007"/><use xlink:href="#b" x="96.681" y="153.007"/></g><path d="M80.14 156.64l-14.163-10.945M65.977 145.695l2.398-17.742M62.043 143.355l1.918-14.19M49.414 152.488l16.563-6.793M68.375 127.953l-14.168-10.945M54.207 117.008l-16.56 6.793M54.152 121.586l-13.25 5.434M37.648 123.8l-2.398 17.743M35.25 141.543l14.164 10.945M39.242 139.305l11.332 8.754" stroke-width="1.2" stroke="#000" stroke-miterlimit="10" fill="none"/><path d="M133.46 137.145l8.946.265" stroke-width="1.2" stroke="#00f" stroke-miterlimit="10" fill="none"/><path d="M142.406 137.41l8.95.262" stroke-width="1.2" stroke="#000" stroke-miterlimit="10" fill="none"/><path d="M135.125 141.406l7.16.21" stroke-width="1.2" stroke="#00f" stroke-miterlimit="10" fill="none"/><path d="M142.285 141.617l7.156.215" stroke-width="1.2" stroke="#000" stroke-miterlimit="10" fill="none"/><path d="M130.46 131.645h7v11h-7zm0 0" fill="#fff"/><use xlink:href="#a" x="130.461" y="140.308" fill="#00f"/><path d="M151.355 137.672l10.946-14.164M162.3 123.508l17.74 2.398M164.637 119.574l14.195 1.918M155.508 106.95l6.793 16.558M180.04 125.906l10.944-14.164M190.984 111.742L184.19 95.18M186.41 111.684l-5.433-13.25M184.19 95.18l-17.737-2.4M166.453 92.78l-10.945 14.17M168.69 96.773l-8.756 11.332" stroke-width="1.2" stroke="#000" stroke-miterlimit="10" fill="none"/></g></svg>
